src/devices/16/phone.svg

<svg width="16" height="16" version="1.1" xmlns="http://www.w3.org/2000/svg">
 <defs>
  <style id="current-color-scheme" type="text/css">.ColorScheme-Text { color:#363636; } .ColorScheme-Highlight { color:#5294e2; }</style>
 </defs>
 <path class="ColorScheme-Text" x="4" d="m4.9609 0c-1.0865 0-1.9609 0.87448-1.9609 1.9609v12.078c0 1.0865 0.87448 1.9609 1.9609 1.9609h6.0781c1.0865 0 1.9609-0.87448 1.9609-1.9609v-12.078c0-1.0865-0.87448-1.9609-1.9609-1.9609h-6.0781zm0.039062 1h6c0.554 0 1 0.446 1 1v12c0 0.554-0.446 1-1 1h-6c-0.554 0-1-0.446-1-1v-12c0-0.554 0.446-1 1-1z" fill="currentColor"/>
 <rect class="ColorScheme-Text" x="6" width="4" height="2" rx="1" ry="1" fill="currentColor"/>
 <path class="ColorScheme-Text" d="m6.6375 13h2.7251c0.35315 0 0.63746 0.223 0.63746 0.5s-0.28431 0.5-0.63746 0.5h-2.7251c-0.35315 0-0.63746-0.223-0.63746-0.5s0.28431-0.5 0.63746-0.5z" fill="currentColor" opacity=".5"/>
</svg>

<svg xmlns="http://www.w3.org/2000/svg" width="16" height="16">
    <defs>
        <style id="current-color-scheme" type="text/css">
            .ColorScheme-Text{color:#050505;opacity:.7}
        </style>
    </defs>
    <path fill="currentColor" d="M4.96 0C3.875 0 3 .874 3 1.96V14.04c0 1.086.874 1.96 1.96 1.96h6.079c1.087 0 1.96-.874 1.96-1.96V1.96C13 .874 12.126 0 11.04 0H4.961zM5 1h6c.554 0 1 .446 1 1v12c0 .554-.446 1-1 1H5c-.554 0-1-.446-1-1V2c0-.554.446-1 1-1z" class="ColorScheme-Text"/>
    <rect width="4" height="2" x="6" fill="currentColor" class="ColorScheme-Text" rx="1" ry="1"/>
    <path fill="currentColor" d="M6.638 13h2.725c.353 0 .637.223.637.5s-.284.5-.637.5H6.638C6.284 14 6 13.777 6 13.5s.284-.5.638-.5z" class="ColorScheme-Text" opacity=".5"/>
</svg>
